!!!!SEGMENT: pl-wtm--r-2162_wysocki-kasper-napoleon--salve-regina.krn
!!!cenid: 18xx:4375
!!!COM: Wysocki, Kasper Napoleon
!!!COM-rismID: pe41024789
!!!CDT: 1810/12/06-1850/09/21
!!!CNT: Polish
!!!OTL: Salve Regina
!!!PDT:
!!!AGN: Sacred
!!!SMS-siglum: PL-Wtm
!!!SMS-shelfmark: R 2162
!!!SMS-shelfwork: W
!!!SMS-variant:
!!!SMS-altvar:
!!!NIFC-rismSourceID: 1001141456
!!!NIFC-rismChildID: 1001141456
!!!NIFC-islandoraID: pl-wtm:30093
!!!URL-pdf-islandora: https://repozytorium.nifc.pl/islandora/object/pl-wtm:30093/datastream/PDF/view
!!!URL-scan: https://polish.musicsources.pl/pl/lokalizacje/galeria/rekopisy/6590/2 @EN{Scan on Polish Music Sources Website} @PL{Skany w portalu Dziedzictwo Muzyki Polskiej w otwartym dostępie}
!!!ONB-nifc:
!!!AIN: 1 alto 1 bass 2 piano 2 soprn 2 tenor
!!!key: e
!!!OMD: Salve Regina. Pour les frères et soeurs
**kern	**kern	**kern	**kern	**kern	**text	**kern	**kern	**kern	**text
*group2	*group2	*group1	*group1	*group1	*	*group1	*group1	*group1	*
*part8	*part7	*part6	*part5	*part4	*part4	*part3	*part2	*part1	*part1
*staff8	*staff7	*staff6	*staff5	*staff4	*staff4	*staff3	*staff2	*staff1	*staff1
*I"Cl.	*I"Cl.	*I"Baſso	*I"Tenore	*I"Cant. chor.	*	*I"Alto	*I"Canto	*I"Cant. chor.	*
*Ipiano	*Ipiano	*Ibass	*Itenor	*Itenor	*	*Ialto	*Isoprn	*Isoprn	*
*ICklav	*ICklav	*ICvox	*ICvox	*ICvox	*	*ICvox	*ICvox	*ICvox	*
*IGacomp	*IGacomp	*IGcoro	*IGcoro	*IGcoro	*	*IGcoro	*IGcoro	*IGcoro	*
*clefF4	*clefG2	*clefF4	*clefF4	*clefF4	*	*clefG2	*clefG2	*clefG2	*
*k[f#]	*k[f#]	*k[f#]	*k[f#]	*k[f#]	*	*k[f#]	*k[f#]	*k[f#]	*
*e:	*e:	*e:	*e:	*e:	*	*e:	*e:	*e:	*
*M4/4	*M4/4	*M4/4	*M4/4	*M4/4	*	*M4/4	*M4/4	*M4/4	*
=1	=1	=1	=1	=1	=1	=1	=1	=1	=1
!	!LO:TX:a:i:t=Pour trois mains!	!	!	!	!	!	!	!	!
4B\	1r	1r	1r	(4B\	Sal-	1r	1r	1r	.
4A\	.	.	.	4A\	.	.	.	.	.
4B\	.	.	.	4B\)	.	.	.	.	.
4E\	.	.	.	4E\	-ve	.	.	.	.
=2	=2	=2	=2	=2	=2	=2	=2	=2	=2
4e 4B 4G 4E\	4bb 4b\	(4E\	(4e\	(4B\	.	(4g/	(4ee\	(4b\	.
4e 4c 4A 4AA\	4ccc 4cc\	4AA/	4c\	4c\	.	4a/	4ee\	4cc\	Re-
4e 4B 4G 4E\	4bb 4b\	4E\	4e\	4B\	.	4g/	4ee\	4b\	.
4d#X 4A 4F#\	4aa 4a\	4F#\)	4A\)	4A\)	.	4f#/)	4dd#X\)	4a/)	.
=3	=3	=3	=3	=3	=3	=3	=3	=3	=3
4e 4B 4G 4E\	4gg 4g\	(4E\	(4B\	(4G\	.	(4g/	(4ee\	(4g/	.
4d#X 4B 4F# 4BB\	4ff# 4f#\	4BB/	4B\	4F#\	.	4b/	4dd#X\	4f#/	.
4e 4B 4G 4E\	4gg 4g\	4E\	4B\	4G\	.	4g/	4ee\	4g/	-gi-
4f# 4B 4A 4F# 4D#X\	4aa 4a\	4D#X\)	4B\)	4A\)	.	4f#/)	4ff#\)	4a/)	.
=4	=4	=4	=4	=4	=4	=4	=4	=4	=4
4e 4B 4G 4E\	4gg 4g\	(4E\	(4B\	(4G\	.	(4g/	(4ee\	(4g/	.
4d#X 4B 4F# 4BB\	4ff# 4f#/	4BB/	4B\	4F#\	.	4b/	4dd#X\	4f#/	-na
2B 2G 2E\	2ee 2e/	2E\)	2B\)	2E\)	.	2g/)	2ee\)	2e/)	.
=5	=5	=5	=5	=5	=5	=5	=5	=5	=5
2f# 2B 2D#X 2BB\	2dd#X 2d#X/	2BB/	2d#X\	2D#X\	.	2b/	2ff#\	2d#X/	ma-
4B 4G 4E\	4ee 4e/	4E\	4B\	4E\	.	4g/	4ee\	4e/	-ter
4e 4B 4G 4E\	4gg 4g\	4E\	4e\	4G\	.	4g/	4b/	4g/	mi-
=6	=6	=6	=6	=6	=6	=6	=6	=6	=6
4f# 4dn 4A 4F# 4Dn\	4aa 4a\	4Dn\	4f#\	4A\	.	4f#/	4ddn\	4a/	-ſe-
4e 4B 4G 4E\	4gg 4g\	4E\	4e\	4G\	.	4g/	4b\	4g/	-ri-
4f# 4d 4A 4F# 4D\	4aa 4a\	(4D\	(4f#\	(4A\	.	(4f#/	(4dd\	(4a/	-cor-
4d 4B 4G 4GG\	4bb 4b\	4GG/	4dn\	4B\	.	4g/	4dd\	4b/	.
=7	=7	=7	=7	=7	=7	=7	=7	=7	=7
4e 4c 4G 4E 4C\	4ee 4e/	4C/	4c\	4E\	.	4g/	4ee\	4e/	.
4d 4c 4F# 4AA\	4ff# 4f#/	4AA/	4d\	4F#\	.	4f#/	4cc\	4f#/	.
4d 4B 4G 4D 4GG\	4gg 4g/	4GG/	4d\	4G\	.	4d/	4b/	4g/	.
4d 4A 4F# 4D\	4ff# 4f#/	4D/	4d\	4F#\	.	4f#/	4a/	4f#/	.
=8	=8	=8	=8	=8	=8	=8	=8	=8	=8
4B 4G 4E\	4ee 4e/	4E\)	4B\)	4E\)	.	4g/)	4g/)	4e/)	.
4B 4F# 4D#X 4BB\	4dd#X 4d#X/	4BB/	4d#X\	4D#X\	.	4f#/	4b/	4d#X/	-di-
2B 2G 2E\	2ee 2e/	2E\	2B\	2E\	.	2e/	2g/	2e/	-ae.
!!LO:LB:g=original
=9	=9	=9	=9	=9	=9	=9	=9	=9	=9
4e 4B 4G 4E\	4bb 4b\	(<4E\	(4e\	(4B\	.	(4g/	(4ee\	(4b/	Vi-
4e 4A 4C\	4aa 4a\	4C/	4e\	4A\	.	4a/	4ee\	4a/	.
4d#X 4B 4F# 4BB\	4bb 4b\	4BB/)	4B\)	4B\)	.	4f#/)	4dd#X\)	4b/)	.
4B 4G 4E\	4ee 4e/	4E\	4B\	4E\	.	4g/	4ee\	4e/	-ta
=10	=10	=10	=10	=10	=10	=10	=10	=10	=10
4e 4B 4G 4E\	4bb 4b\	(4E\	(4e\	(4B\	.	(4g/	(4ee\	(4b/	dul-
4e 4c 4A\	4ccc 4cc\	4A\	4c\	4c\	.	4a/	4ee\	4cc\	.
4e 4B 4G 4E\	4bb 4b\	4E\	4e\	4B\	.	4g/	4ee\	4b\	.
4d#X 4A 4F#\	4aa 4a\	4F#\)	4A\)	4A\)	.	4f#/)	4dd#X\)	4a/)	.
=11	=11	=11	=11	=11	=11	=11	=11	=11	=11
4e 4B 4G 4E\	4gg 4g/	(4E\	(4B\	(4G\	.	(4g/	(4ee\	(4g/	-ce-
4d#X 4B 4F# 4BB\	4ff# 4f#/	4BB/	4B\	4F#\	.	4b/	4dd#X\	4f#/	.
4e 4B 4G 4E\	4gg 4g/	4E\	4B\	4G\	.	4g/	4ee\	4g/	.
4f# 4B 4A 4F# 4D#X\	4aa 4a\	4D#X/)	4B\)	4A\)	.	4f#/)	4ff#\)	4a/)	.
=12	=12	=12	=12	=12	=12	=12	=12	=12	=12
4e 4B 4G 4E\	4gg 4g/	(4E\	(4B\	(4G\	.	(4g/	(4ee\	(4g/	-do
4d#X 4B 4F# 4BB\	4ff# 4f#/	4BB/	4B\	4F#\	.	4b/	4dd#X\	4f#/	.
2B 2G 2E\	2ee 2e/	2E\)	2B\)	2E\)	.	2g/)	2ee\)	2e/)	.
=13	=13	=13	=13	=13	=13	=13	=13	=13	=13
2f# 2B 2D#X 2BB\	2dd#X 2d#X/	2BB/	2d#X\	2D#X\	.	2b/	2ff#\	2d#X/	et
2B 2G 2E\	2ee 2e/	2E\	2B\	2E\	.	2g/	2ee\	2e/	ſpes
=14	=14	=14	=14	=14	=14	=14	=14	=14	=14
4e 4B 4G 4E\	4gg 4g\	(4E\	(4e\	(4G\	.	(4g/	(4b\	(4g/	.
4f# 4dn 4A 4F# 4Dn\	4aa 4a\	4Dn\	4f#\	4A\	.	4f#/	4ddn\	4a/	no-
4e 4B 4G 4E\	4gg 4g\	4E\	4e\	4G\	.	4g/	4b\	4g/	.
4f# 4d 4A 4F# 4D\	4aa 4a\	4D\)	4f#\)	4A\)	.	4f#/)	4dd\)	4a/)	.
=15	=15	=15	=15	=15	=15	=15	=15	=15	=15
2d 2B 2G 2GG\	2bb 2b\	2GG/	2dn\	2B\	.	2g/	2dd\	2b/	-ſtra
2r	2r	2r	2r	2r	.	2r	2r	2r	.
!!LO:PB:g=original
=16	=16	=16	=16	=16	=16	=16	=16	=16	=16
4c 4G 4E 4C\	4ee 4e\	(4C/	(4c\	(4E\	.	(4g/	(4ee\	(4e/	ſal-
4d 4c 4F# 4AA\	4ff# 4f#\	4AA/	4d\	4F#\	.	4f#/	4cc\	4f#/	.
4d 4B 4G 4D 4GG\	4gg 4g\	4GG/	4d\	4G\	.	4d/	4b\	4g/	.
4d 4A 4F# 4D\	4ff# 4f#\	4D/	4d\	4F#\	.	4f#/	4a/	4f#/	.
=17	=17	=17	=17	=17	=17	=17	=17	=17	=17
4B 4G 4E\	4ee 4e/	4E\	4B\	4E\	.	4g/	4g/	4e/	.
4B 4F# 4D#X 4BB\	4dd#X 4d#X/	4BB/)	4d#X\)	4D#X/)	.	4f#/)	4b/)	4d#X/)	.
2B 2G 2E\	2ee 2e/	2E\	2B\	2E\	.	2e/	2g/	2e/	-ve.
=18	=18	=18	=18	=18	=18	=18	=18	=18	=18
4e 4B 4G 4E\	4gg 4g\	(4E\	(4e\	(4G\	.	(4g/	(4b\	(4g/	Ad
4f# 4d 4A 4F# 4D\	4aa 4a\	4D\)	4f#\)	4A\)	.	4f#/)	4dd\)	4a/)	.
4d 4B 4G 4GG\	4bb 4b\	4GG/	4dn\	4B\	.	4g/	4dd\	4b/	Te
4f# 4d 4A 4F# 4D\	4aa 4a\	4D\	4f#\	4A\	.	4f#/	4dd\	4a/	cla-
=19	=19	=19	=19	=19	=19	=19	=19	=19	=19
4e 4B 4G 4E\	4gg 4g\	(4E\	(4e\	(4G\	.	(4g/	(4b\	(4g/	-ma-
4d 4A 4F# 4D\	4ff# 4f#\	4D\	4f#\	4F#\	.	4a/	4dd\	4f#/	.
4e 4c#X 4A 4E 4AA\	4aa 4a\	4AA/	4e\	4A\	.	4e/	4cc#X\	4a/	.
4g 4d 4B 4GG\	4bb 4b\	4GG/)	4f#\)	4B\)	.	4b/)	4dd\)	4b/)	.
=20	=20	=20	=20	=20	=20	=20	=20	=20	=20
4e 4c#X 4A 4G 4AA\	4gg 4g\	(4AA/	(4e\	(4G\	.	[4a/	(4cc#X\	(4g/	-mus
4d 4A 4F# 4D\	4ff# 4f#\	4D/)	4d\)	4F#\)	.	4a/]	4dd\)	4f#/)	.
4c# 4A 4E 4AA\	4aa 4a\	4AA/	4c#X\	4A\	.	4e/	4cc#\	4a/	ex-
!	!	!	!	!	!	!	!	!	!LO:SIC:o=-u-
4d 4B 4G 4BB\	4gg 4g\	4BB/	4d\	4G\	.	4g/	4b\	4g/	-su-
=21	=21	=21	=21	=21	=21	=21	=21	=21	=21
4d 4A 4F# 4D\	4ff# 4f#\	(4D/	(4d\	(4F#\	.	(4a/	(<4a/	(4f#/	-les
4A 4E 4C#X\	4ee 4e/	4C#X/	4A\	4E\	.	4e/	4a/	4e/	.
4d 4A 4F# 4D\	4ff# 4f#\	4D/	4d\	4F#\	.	4d/	4a/	4f#/	.
4d 4B 4G#X 4E 4BB\	4gg#X 4g#X\	4BB/	4d\	4G#X\	.	4e/	4b/	4g#X/	.
=22	=22	=22	=22	=22	=22	=22	=22	=22	=22
2c#X 2A 2E 2AA\	2aa 2a\	2AA/)	2c#X\)	2A\)	.	2e/)	2cc#X\)	2a/)	.
2r	2r	2r	2r	2r	.	2r	2r	2r	.
!!LO:LB:g=original
=23	=23	=23	=23	=23	=23	=23	=23	=23	=23
4f# 4F# 4D\	4ddn 4dn/	4D/	4f#\	4D\	.	4f#/	4a/	4d/	fi-
4Gn 4E 4Cn\	4ee 4e/	4Cn/	4e\	4E\	.	4g/	4ccn\	4e/	-li-
4dn 4B 4G 4BB\	4ggn 4gn\	(4BB/	(4d\	(4Gn\	.	(4b/	(4dd\	(4gn/	-i
4A 4F# 4D\	4ff# 4f#\	4D/)	4f#\)	4F#\)	.	4a/)	4dd\)	4f#/)	.
=24	=24	=24	=24	=24	=24	=24	=24	=24	=24
!	!	!	!	!	!	!	!	!	!LO:SIC:o=E-
4e 4G 4E\	4gg 4g\	(4E/	(4e\	(4G\	.	(4g/	(4b/	(4g/	He-
4d#X 4B 4F# 4BB\	4ff# 4f#\	4BB/	4d#X\	4F#\	.	4b/	4b/	4f#/	.
4G 4E 4C\	4ee 4e/	4C/	4e\	4E\	.	4e/	4g/	4e/	.
4B 4F# 4D#X 4BB\	4dd#X 4d#X/	4BB/)	4B\)	4D#X\)	.	4f#/)	4b/)	4d#X/)	.
=25	=25	=25	=25	=25	=25	=25	=25	=25	=25
2B 2G 2E,\	2ee 2e,/	2E,\	2B,\	2E,\	.	2e,/	2g,/	2e,/	-vae.
4e 4B 4G 4E\	4gg 4g\	(4E\	(4e\	(4G\	.	(4g/	(4b\	(4g/	Ad
4f# 4dn 4A 4F# 4Dn\	4aa 4a\	4D\)	4f#\)	4A\)	.	4f#/)	4dd\)	4a/)	.
=26	=26	=26	=26	=26	=26	=26	=26	=26	=26
2d 2B 2G\	2bb 2b\	2G\	2dn\	2B\	.	2g/	2b\	2b/	Te
4d 4A 4F#\	4ddd 4dd\	4F#\	4d\	4dn\	.	4a/	4a/	4dd\	ſus-
4f# 4d 4A 4F# 4D\	4aa 4a\	4D\	4f#\	4A\	.	4f#/	4dd\	4a/	-pi-
=27	=27	=27	=27	=27	=27	=27	=27	=27	=27
4d 4B 4G\	4bb 4b\	(4G\	(4d\	(4B\	.	(4g/	(4b\	(4b/	-ra-
4f# 4d 4A 4F# 4D\	4aa 4a\	4D/	4f#\	4A\	.	4f#/	4dd\	4a/	.
4e 4B 4G 4E\	4gg 4g/	4E\	4d\	4G\	.	4g/	4b\	4g/	.
4f# 4d 4A 4F# 4D\	4aa 4a\	4D\)	4f#\)	4A\)	.	4f#/)	4dd\)	4a/)	.
=28	=28	=28	=28	=28	=28	=28	=28	=28	=28
2d 2B 2G\	2bb 2b\	2G\	2d\	2B\	.	2g/	2b\	2b/	-mus
4r	4r	4r	4r	4r	.	4r	4r	4r	.
4c#X 4A 4E\	4ee 4e/	4A\	4c#X\	4E\	.	4e/	4a/	4e/	ge-
!!LO:PB:g=original
=29	=29	=29	=29	=29	=29	=29	=29	=29	=29
4e 4B 4G 4E\	4gg 4g\	4E\	4e\	4G\	.	4b\	4b\	4g/	-men-
4e 4c#X 4A 4E 4C#X\	4aa 4a\	4C#X/	4e\	4A\	.	4a/	4cc#X\	4a/	-tes
4e 4c# 4A 4E 4AA\	4ee 4e/	(<4AA/	(4e\	(4E\	.	(4a/	(4cc#\	(4e/	et
4d 4A 4F#\	4ff# 4f#/	4F#\)	4d\)	4F#\)	.	4a/)	4dd\)	4f#/)	.
=30	=30	=30	=30	=30	=30	=30	=30	=30	=30
4e 4c 4A 4G 4E\	4gg 4g\	(<4E\	(4c#X\	(4G\	.	(4a/	(4ee\	(4g/	flen-
4d 4A 4F# 4D\	4ff# 4f#/	4D/	4d\	4F#\	.	4a/	4ff#\	4f#/	.
2c#X 2G 2E 2AA\	2ee 2e/	2AA/)	2e\)	2E\)	.	2g/)	2cc#X\)	2e/)	.
=31	=31	=31	=31	=31	=31	=31	=31	=31	=31
2A 2F# 2D\	2dd 2d/	2D\	2A\	2D\	.	2f#/	2dd\	2d/	-tes
4r	4r	4r	4r	4r	.	4r	4r	4r	.
4cn 4G 4E 4Cn\	4ee 4e/	4Cn/	4cn\	4E\	.	4g/	4ee\	4e/	in
=32	=32	=32	=32	=32	=32	=32	=32	=32	=32
4c 4G 4E 4C\	4ee 4e/	(4C/	(4c\	(4E\	.	(4g/	(4ccn\	(4e/	hac
4G 4D 4BB/	4dd 4d/	4BB/	4G\	4D\	.	4g/	4dd\	4d/	.
4c 4A 4E 4AA\	4ee 4e/	4AA/	4c\	4E\	.	4a/	4cc\	4e/	.
4d 4B 4G 4GG\	4gg 4g\	4GG/)	4d\)	4G\)	.	4b/)	4b\)	4g/)	.
=33	=33	=33	=33	=33	=33	=33	=33	=33	=33
4e 4B 4G 4E\	4gg 4g\	(4E\	(4e\	(4G\	.	(4g/	(4b\	(4g/	la-
4f# 4d 4A 4F# 4D\	4aa 4a\	4D\	4f#\	4A\	.	4f#/	4dd\	4a/	.
4d 4B 4G\	4bb 4b\	4G\)	4d\)	4B\)	.	4g/)	4b\)	4b/)	.
!	!	!	!	!	!	!	!	!	!LO:SIC:o=-cry-
4f# 4d 4A 4F# 4D\	4aa 4a\	4D\	4f#\	4A\	.	4f#/	4dd\	4a/	-cri-
=34	=34	=34	=34	=34	=34	=34	=34	=34	=34
4e 4B 4G 4E\	4gg 4g\	(<4E\	(4e\	(4G\	.	(4g/	(4b\	(4g/	-ma-
4d#X 4B 4A 4F# 4BB\	4ff# 4f#\	4BB/)	4d#X\)	4F#\)	.	4a/)	4b\)	4f#/)	.
!	!	!	!	!	!	!	!	!	!LO:SIC:o=-num
4e 4B 4G 4E\	4gg 4g\	(4E\	(4e\	(4G\	.	(4g/	(4b\	(4g/	-rum
4B 4A 4F# 4D#X\	4aa 4a\	4D#X\)	4B\)	4A\)	.	4f#/)	4b\)	4a/)	.
!!LO:LB:g=original
=35	=35	=35	=35	=35	=35	=35	=35	=35	=35
4B 4G 4E\	4gg 4g/	(<4E\	(4B\	(4G\	.	(4g/	(<4b\	(4g/	val-
4d#X 4B 4F# 4BB\	4ff# 4f#/	4BB/	4d#X\	4F#\	.	4b/	4b\	4f#/	.
4G 4E 4C\	4ee 4e/	4C/	4e\	4E\	.	4e/	4g/	4e/	.
4B 4F# 4D#X 4BB\	4dd#X 4d#X/	4BB/)	4B\)	4D#X\)	.	4f#/)	4b/)	4d#X/)	.
=36	=36	=36	=36	=36	=36	=36	=36	=36	=36
2B 2G 2E\	2ee 2e/	2E\	2B\	2E\	.	2e/	2g/	2e/	-le.
2r	2r	2r	2r	2r	.	2r	2r	2r	.
=37	=37	=37	=37	=37	=37	=37	=37	=37	=37
4e 4B 4G 4E\	4gg 4g\	(4E\	(4e\	(4G\	.	(4g/	(4b\	(4g/	E-
4f# 4dn 4A 4F# 4Dn\	4aa 4a\	4Dn\)	4f#\)	4A\)	.	4f#/)	4dd\)	4a/)	.
!	!	!	!	!	!	!	!	!	!LO:SIC:o=-ja
2e 2B 2G 2E\	2gg 2g\	2E\	2e\	2G\	.	2g/	2b\	2g/	-ia
=38	=38	=38	=38	=38	=38	=38	=38	=38	=38
4f# 4d 4A 4F# 4D\	4aa 4a\	4D\	4f#\	4A\	.	4f#/	4dd\	4a/	er-
4d 4B 4G\	4bb 4b\	4G\	4d\	4B\	.	4g/	4b\	4b/	-go
4d 4A 4F#\	4ddd 4dd\	4F#\	4d\	4d\	.	4a/	4a/	4dd\	ad-
4f# 4d 4A 4F# 4D\	4aa 4a\	4D\	4f#\	4A\	.	4f#/	4dd\	4a/	-vo-
=39	=39	=39	=39	=39	=39	=39	=39	=39	=39
4d 4B 4G\	4bb 4b\	(<4G\	(4d\	(4B\	.	(4g/	(4b\	(4b/	-ca-
4f# 4d 4A 4F# 4D\	4aa 4a\	4D\	4f#\	4A\	.	4f#/	4dd\	4a/	.
4e 4B 4G 4E\	4gg 4g/	4E\	4e\	4G\	.	4g/	4b\	4g/	.
4d#X 4B 4F# 4BB\	4ff# 4f#/	4BB/)	4d#X\)	4F#\)	.	4b/)	4b\)	4f#/)	.
=40	=40	=40	=40	=40	=40	=40	=40	=40	=40
2B 2G 2E\	2ee 2e/	2E\	2e\	2E\	.	2g/	2b\	2e/	-ta
4f# 4dn 4A 4F# 4D\	4aa 4a\	4D\	4f#\	4A\	.	4f#/	4dd\	4a/	noſ-
4d 4B 4G\	4bb 4b\	4G\	4dn\	4B\	.	4g/	4b\	4b/	-tra
!!LO:PB:g=original
=41	=41	=41	=41	=41	=41	=41	=41	=41	=41
2e 2B 2G 2E\	2eee 2ee\	2E\	2B\	2e\	.	2g/	2g/	2ee\	il-
2e 2B 2G 2E\	2eee 2ee\	2E\	2e\	2e\	.	2g/	2b/	2ee\	-los
=42	=42	=42	=42	=42	=42	=42	=42	=42	=42
4f# 4d 4B 4F# 4BB\	4ddd 4dd\	(4BB/	(4f#\	(4d\	.	(4f#/	(4b\	(4dd\	.
4e 4c#X 4A#X 4F#\	4ccc#X 4cc#X\	4F#\	4e\	4c#X\	.	4f#/	4a#X/	4cc#X\	.
4d 4B 4F# 4BB\	4ddd 4dd\	4BB/	4d\	4d\	.	4f#/	4b\	4dd\	tu-
4e 4c# 4F# 4AA#X\	4eee 4ee\	4AA#X/	4c#X\	4e\	.	4f#/	4cc#X\	4ee\	.
=43	=43	=43	=43	=43	=43	=43	=43	=43	=43
4d 4B 4F# 4BB\	4ddd 4dd\	4BB/	4d\	4d\	.	4f#/	4b\	4dd\	.
!LO:SIC:v:o=4f# 4c 4A#X 4F#\	!	!	!	!	!	!	!	!	!
4f# 4c# 4A#X 4F#\	4ccc#X 4cc#X\	4F#\)	4f#\)	4c#X\)	.	4f#/)	4a#X/)	4cc#X\)	.
2d 2B 2F# 2BB\	2bb 2b\	2BB/	2d\	2B\	.	2f#/	2b\	2b\	-os
=44	=44	=44	=44	=44	=44	=44	=44	=44	=44
4e 4B 4G 4E\	4eee 4ee\	4E\	4B\	4e\	.	4g/	4g/	4ee\	mi-
4d 4An 4F#\	4ddd 4dd\	4F#\	4d\	4d\	.	4f#/	4an/	4dd\	-ſe-
2d 2B 2G\	2bb 2b\	2G\	2d\	2B\	.	2d/	2g/	2b\	-ri
=45	=45	=45	=45	=45	=45	=45	=45	=45	=45
4f# 4d 4A 4F#\	4ddd 4dd\	(4F#\	(4d\	(4d\	.	(4f#/	(<4a/	(4dd\	.
4d 4B 4F#\	4bb 4b\	4G\	4d\	4B\	.	4d/	4b\	4b\	cor-
4e 4cn 4G 4E\	4gg 4g\	4E\	4e\	4G\	.	4g/	4ccn\	4g/	.
4f# 4d 4A 4D\	4aa 4a\	4D\	4f#\	4A\	.	4f#/	4dd\	4a/	.
=46	=46	=46	=46	=46	=46	=46	=46	=46	=46
4g 4d 4B 4G 4BB\	4bb 4b\	4BB/	4d\	4B\	.	4g/	4g/	4b\	.
4f# 4c 4A 4AAn\	4cccn 4ccn\	4AAn/)	4cn\)	4cn\)	.	4f#/)	4a/)	4ccn\)	.
4g 4d 4B 4GG\	4bb 4b\	(4GG/	(4d\	(4B\	.	(4g/	(<4b/	(4b\	-des
4f# 4d 4A 4D\	4aa 4a\	4D/)	4d\)	4A\)	.	4f#/)	4dd\)	4a/)	.
!!LO:LB:g=original
=47	=47	=47	=47	=47	=47	=47	=47	=47	=47
4c#X 4A 4E 4AA\	4ee 4e/	(4A 4AA/	(4e\	(4E\	.	(4a/	(4cc#X\	(4e/	o-
4d 4A 4F#\	4ff# 4f#/	4F#\	4d\	4F#\	.	4a/	4dd\	4f#/	.
4e 4c# 4G 4E\	4gg 4g\	4E\)	4e\)	4G\)	.	4g/)	4cc#\)	4g/)	.
4d 4A 4F# 4D\	4ff# 4f#\	4D\	4f#\	4F#\	.	4a/	4dd\	4f#/	-cu-
=48	=48	=48	=48	=48	=48	=48	=48	=48	=48
2c#X 2A 2G 2E\	2ee 2e/	(2A\	(2c#X\	(2E\	.	(2g/	(2cc#X\	(2e/	-los
2A 2F# 2D\	2dd 2d/	2D\)	2A\)	2D\)	.	2f#/)	2dd\)	2d/)	.
=49	=49	=49	=49	=49	=49	=49	=49	=49	=49
4cn 4G 4E 4C\	4ee 4e/	(4Cn/	(4cn\	(4E\	.	(4e/	(4g/	(4e/	.
4B 4G 4D 4BB\	4dd 4d/	4BB/	4d\	4D\	.	4g/	4b\	4d/	.
4c 4A 4E 4C\	4ee 4e/	4AA/	4c\	4E\	.	4a/	4ccn\	4e/	ad
4d 4B 4G 4GG\	4gg 4g\	4GG/)	4d\)	4G\)	.	4b/)	4b\)	4g/)	.
=50	=50	=50	=50	=50	=50	=50	=50	=50	=50
4f# 4d 4A 4F# 4D\	4aa 4a\	(4D\	(4f#\	(4A\	.	(4f#/	(4dd\	(4a/	.
4e 4B 4G 4E\	4gg 4g\	4E\	4e\	4G\	.	4g/	4b\	4g/	.
4f# 4d 4A 4F# 4D\	4aa 4a\	4D\	4f#\	4A\	.	4f#/	4dd\	4a/	nos
4d 4B 4G\	4bb 4b\	4G\)	4d\)	4B\)	.	4g/)	4b\)	4b/)	.
=51	=51	=51	=51	=51	=51	=51	=51	=51	=51
4c 4G 4E 4C\	4ee 4e/	(4C/	(4c\	(4E\	.	(4g/	(4ee\	(4e/	.
4c 4A 4F# 4AA\	4ff# 4f#/	4AA/	4c\	4F#\	.	4a/	4ccn\	4f#/	.
4d 4B 4G 4D 4GG\	4gg 4g/	4GG/	4d\	4G\	.	4d/	4b\	4g/	con-
4d 4A 4F# 4D\	4ff# 4f#/	4D/)	4d\)	4F#\)	.	4f#/)	4a/)	4f#/)	.
=52	=52	=52	=52	=52	=52	=52	=52	=52	=52
4B 4G 4E\	4ee 4e/	(<4E\	[4B\	(4E\	.	(4g/	(4g/	(4e/	-ver-
4B 4F# 4D#X 4BB\	4dd#X 4d#X/	4BB/)	4B\]	4D#X\)	.	4f#/)	4b/)	4d#X/)	.
4B 4G 4E,\	4ee 4e,/	4E,\	4B,\	4E,\	.	4e,/	4g,/	4e,/	-te.
4B 4G 4E\	4ee 4e/	4E\	4e\	4E\	.	4g/	4b\	4e/	Et
!!LO:PB:g=original
=53	=53	=53	=53	=53	=53	=53	=53	=53	=53
2c 2G 2E 2C\	2ee 2e\	2C/	2e\	2E\	.	2g/	2cc\	2e/	Je-
4B 4G 4Dn 4GG\	4ddn 4dn/	(4GG/	(4B\	(4Dn\	.	(4g/	(4dd\	(4dn/	-ſum
4c 4G 4E 4C\	4ee 4e/	4C/)	4c\)	4E\)	.	4g/)	4cc\)	4e/)	.
=54	=54	=54	=54	=54	=54	=54	=54	=54	=54
2G 2D 2BB\	2dd 2d/	2BB/	2G\	2D\	.	2g/	2dd\	2d/	be-
2c 2A 2E 2AA\	2ee 2e/	2AA/	2c\	2E\	.	2a/	2cc\	2e/	-ne-
=55	=55	=55	=55	=55	=55	=55	=55	=55	=55
4d 4B 4G 4GG\	4gg 4g\	(4GG/	(4d\	(4G\	.	(4b/	(4b\	(4g/	-dic-
4d 4A 4F# 4D\	4ff# 4f#\	4D\	4d\	4F#\	.	4f#/	4a/	4f#/	.
4c#X 4G 4E\	4gg 4g\	4E\	4c#X\	4G\	.	4e/	4cc#X\	4g/	.
4d 4A 4F# 4D\	4ff# 4f#\	4F#\)	4A\)	4F#\)	.	4d/)	4dd\)	4f#/)	.
=56	=56	=56	=56	=56	=56	=56	=56	=56	=56
4c#X 4A\	4ee 4e/	(4A\	[4A\	(4E\	.	(4e/	(4cc#X\	(4e/	-tum
4A 4F# 4D\	4dd 4d/	4D\)	4A\]	4D\)	.	4f#/)	4dd\)	4d/)	.
2f# 2d 2A 2F# 2D\	2aa 2a\	2D\	2f#\	2A\	.	2f#/	2dd\	2a/	fruc-
=57	=57	=57	=57	=57	=57	=57	=57	=57	=57
4e 4c#X 4G 4E\	4gg 4g\	(4E\	(4e\	(4G\	.	(4g/	(4cc#X\	(4g/	-tum
4d 4A 4F#\	4ff# 4f#\	4F#\	4d\	4F#\	.	4a/	4dd\	4f#/	.
2c# 2A\	2ee 2e/	2A\)	2e\)	2E\)	.	2a/)	2cc#\)	2e/)	.
=58	=58	=58	=58	=58	=58	=58	=58	=58	=58
4d 4A 4F#\	4ff# 4f#\	(4F#\	(4d\	(4F#\	.	(4a/	(4dd\	(4f#/	ven-
4e 4B 4G 4E\	4gg 4g\	4E\)	4B\)	4G\)	.	4g/)	4ee\)	4g/)	.
2f# 2B 2A 2F# 2D#X\	2aa 2a\	2D#X\	2B\	2A\	.	2f#/	2ff#\	2a/	-tris
=59	=59	=59	=59	=59	=59	=59	=59	=59	=59
4B 4G 4E\	4gg 4g\	(<4E\	(4B\	(4G\	.	(4g/	(4b/	(4g/	tu-
4d#X 4B 4F# 4BB\	4ff# 4f#/	4BB/	4d#X\	4F#\	.	4b/	4b/	4f#/	.
4G 4E 4C\	4ee 4e/	4C/	4e\	4E\	.	4e/	4g/	4e/	.
4B 4F# 4D#X 4BB\	4dd#X 4d#X/	4BB/)	4B\)	4D#X\)	.	4f#/)	4b/)	4d#X/)	.
!!LO:LB:g=original
=60	=60	=60	=60	=60	=60	=60	=60	=60	=60
4B 4G 4E\	4ee 4e\	4E\	4B\	4E\	.	4e/	4g/	4e/	-i
4r	4r	4r	4r	4r	.	4r	4r	4r	.
4e 4B 4G 4E\	4gg 4g\	(4E\	(4e\	(4G\	.	(4g/	(4b\	(4g/	no-
4f# 4dn 4A 4F# 4Dn\	4aa 4a\	4D\	4f#\	4A\	.	4f#/	4dd\	4a/	.
=61	=61	=61	=61	=61	=61	=61	=61	=61	=61
4d 4B 4G\	4bb 4b\	4G\	4dn\	4B\	.	4g/	4b\	4b\	.
4d 4c 4A 4F#\	4ccc 4cc\	4F#\	4d\	4c\	.	4a/	4a/	4cc\	.
4d 4B 4G\	4bb 4b\	4G\)	4d\)	4B\)	.	4g/)	4b/)	4b\)	.
4d 4B 4G\	4bb 4b\	4G\	4d\	4B\	.	4g/	4b/	4b\	-bis
=62	=62	=62	=62	=62	=62	=62	=62	=62	=62
4d 4B 4G\	4bb 4b\	(4G\	(4d\	(4B\	.	(4g/	(4b\	(4b/	poſt
4f# 4d 4A 4F# 4D\	4aa 4a\	4D\	4f#\	4A\	.	4f#/	4dd\	4a/	.
2e 2B 2G 2E\	2gg 2g\	2E\)	2e\)	2G\)	.	2g/)	2b\)	2g/)	.
=63	=63	=63	=63	=63	=63	=63	=63	=63	=63
2e 2A 2E 2C#X\	2aa 2a\	2C#X/	2e\	2A\	.	2e/	2a/	2a/	hoc
4c#X 4A\	4ee 4e/	(4A\	(4A\	(4E\	.	[4a/	(4cc#X\	(4e/	ex-
4d 4A 4F#\	4ff# 4f#/	4F#\)	4d\)	4F#\)	.	4a/]	4dd\)	4f#/)	.
=64	=64	=64	=64	=64	=64	=64	=64	=64	=64
!	!	!	!	!	!	!	!	!	!LO:SIC:o=-i-
4e 4c#X 4A 4G 4C#X\	4gg 4g\	4C#X/	4c#X\	4G\	.	4a/	4ee\	4g/	-si-
4d 4A 4F# 4D\	4ff# 4f#/	4D/	4A\	4F#\	.	4a/	4dd\	4f#/	-li-
4c# 4A 4G 4E 4AA\	4ee 4e/	(4AA/	[4A\	(4E\	.	(4g/	(4cc#X\	(4e/	-um
4A 4F# 4D\	4dd 4d/	4D/)	4A\]	4D\)	.	4f#/)	4dd\)	4d/)	.
=65	=65	=65	=65	=65	=65	=65	=65	=65	=65
4f# 4d 4G 4GG\	4gg 4g\	(4GG/	[4d\	(4G\	.	(4b/	(<4b\	(4g/	o-
4d 4A 4F# 4D\	4ff# 4f#/	4D/)	4d\]	4F#\)	.	4f#/)	4a/)	4f#/)	.
4B 4G 4E\	4ee 4e/	(<4E\	[4B\	(4E\	.	(4g/	(4g/	(4e/	-ſten-
4B 4F# 4D#X 4BB\	4dd#X 4d#X/	4BB/)	4B\]	4D#X\)	.	4f#/)	4b/)	4d#X/)	.
=66	=66	=66	=66	=66	=66	=66	=66	=66	=66
2G 2E\	2ee 2e/	2E\	2B\	2E\	.	2e/	2g/	2e/	-de.
2r	2r	2r	2r	2r	.	2r	2r	2r	.
!!LO:PB:g=original
=67	=67	=67	=67	=67	=67	=67	=67	=67	=67
4d 4B 4F# 4BB\	4bb 4b\	(4BB/	(4d\	(4B\	.	(4f#/	(4b\	(4b\	.
4f# 4c#X 4A#X 4F#\	4aa#X 4a#X\	4F#\	4f#\	4A#X\	.	4f#/	4cc#X\	4a#X/	.
4f# 4B 4F# 4Dn\	4bb 4b\	4Dn/	4f#\	4B\	.	4f#/	4b\	4b\	.
4f# 4d 4B 4F# 4BB\	4ddd 4dd\	4BB/	4f#\	4d\	.	4f#/	4b\	4dd\	O
=68	=68	=68	=68	=68	=68	=68	=68	=68	=68
4f# 4c#X 4A#X 4F#\	4ccc#X 4cc#X\	4F#\	4f#\	4c#X\	.	4f#/	4a#X/	4cc#X\	.
4d 4B 4F# 4D\	4ddd 4dd\	4D\	4B\	4d\	.	4f#/	4b/	4dd\	.
2e 2c# 2A#X 2E 2C#X\	2eee 2ee\	2C#X/)	2c#X\)	2e\)	.	2e/)	2a#/)	2ee\)	.
=69	=69	=69	=69	=69	=69	=69	=69	=69	=69
4f# 4d 4B 4F# 4BB\	4ddd 4dd\	(4BB/	(4f#\	(4d\	.	(4f#/	(<4b/	(4dd\	.
4f# 4e 4c#X 4A#X 4F#\	4ccc#X 4cc#X\	4F#\	4f#\	4c#X\	.	4e/	4a#X/	4cc#X\	cle-
4d 4B 4G\	4bb 4b\	4G\	4B\	4B\	.	4d/	4b/	4b\	.
4e 4c# 4A# 4F#\	4aa#X 4a#X\	4F#\)	4e\)	4A#X\)	.	4f#/)	4cc#X\)	4a#X/)	.
=70	=70	=70	=70	=70	=70	=70	=70	=70	=70
2d 2B 2F# 2BB\	2bb 2b\	2BB/	2d\	2B\	.	2f#/	2b\	2b\	-mens,
2r	2r	2r	2r	2r	.	2r	2r	2r	.
=71	=71	=71	=71	=71	=71	=71	=71	=71	=71
4d 4B 4F# 4BB\	4bb 4b\	(4BB/	(4d\	(4B\	.	(4f#/	(4b\	(4b\	.
4f# 4c#X 4A#X 4F#\	4aa#X 4a#X\	4F#\	4f#\	4A#X\	.	4f#/	4cc#X\	4a#X/	.
4f# 4B 4F# 4D\	4bb 4b\	4D/	4f#\	4B\	.	4f#/	4b\	4b\	.
4f# 4d 4B 4F# 4BB\	4ddd 4dd\	4BB/	4f#\	4d\	.	4f#/	4b\	4dd\	o
=72	=72	=72	=72	=72	=72	=72	=72	=72	=72
4f# 4c#X 4A#X 4F#\	4ccc#X 4cc#X\	4F#\	4f#\	4c#X\	.	4f#/	4a#X/	4cc#X\	.
4d 4B 4F# 4D\	4ddd 4dd\	4D\	4B\	4d\	.	4f#/	4b/	4dd\	.
2e 2c# 2A# 2E 2C#X\	2eee 2ee\	2C#X/)	2c#X\)	2e\)	.	2e/)	2a#/)	2ee\)	.
=73	=73	=73	=73	=73	=73	=73	=73	=73	=73
4f# 4d 4B 4F# 4BB\	4ddd 4dd\	(4BB/	(4f#\	(4d\	.	(4f#/	(<4b\	(4dd\	pi-
4f# 4e 4c#X 4A#X 4F#\	4ccc#X 4cc#X\	4F#\	4f#\	4c#X\	.	4e/	4a#X/	4cc#X\	.
4d 4B 4G\	4bb 4b\	4G\	4B\	4B\	.	4d/	4b/	4b\	.
4e 4c# 4A# 4F#\	4aa#X 4a#X\	4F#\)	4e\)	4A#X\	.	4f#/)	4cc#X\)	4a#X/)	.
=74	=74	=74	=74	=74	=74	=74	=74	=74	=74
2d 2B 2F# 2BB\	2bb 2b\	2BB/	2d\	2B\)	.	2f#/	2b\	2b\	-a
2r	2r	2r	2r	2r	.	2r	2r	2r	.
!!LO:LB:g=original
=75	=75	=75	=75	=75	=75	=75	=75	=75	=75
4b 4f# 4d 4B\	4bb 4b\	(4G\	(4d\	(4B\	.	(4g/	(4b\	(4b\	.
4f# 4d 4An 4BB\	4aan 4an\	4D\	4f#\	4An\	.	4a/	4dd\	4an/	.
4g 4d 4B 4G\	4bb 4b\	4G\	4d\	4B\	.	4g/	4b\	4b/	.
4cn 4G 4E 4Cn\	4ee 4e/	4C/	4e\	4E\	.	4g/	4ccn\	4e/	o
=76	=76	=76	=76	=76	=76	=76	=76	=76	=76
4d 4B 4G 4D\	4gg 4g/	4GG/	4d\	4G\	.	4d/	4b/	4g/	.
4d 4A 4F# 4D\	4ff# 4f#/	4D/	4d\	4F#\	.	4f#/	4an/	4f#/	.
4B 4G 4E\	4ee 4e/	4E\	4B\	4E\	.	4g/	4g/	4e/	.
4B 4F# 4D#X 4BB\	4dd#X 4d#X/	4BB/	4B\	4D#X/	.	4f#/	4b/	4d#X/	.
=77	=77	=77	=77	=77	=77	=77	=77	=77	=77
1B 1G 1E	1ee 1e	1E)	1B)	1E)	.	1e)	1g)	1e)	.
=78	=78	=78	=78	=78	=78	=78	=78	=78	=78
2dn 2A 2F# 2Dn\	2ff# 2f#\	(2D/	(2d\	(2F#\	.	(2a/	(<2a/	(2f#/	dul-
4d 4B 4G 4BB\	4gg 4g\	4BB/	4d\	4G\	.	4g/	4b/	4g/	.
4e 4c 4A 4E 4AA\	4aa 4a\	4AA/)	4e\)	4A\)	.	4e/)	4cc\)	4a/)	.
=79	=79	=79	=79	=79	=79	=79	=79	=79	=79
2d 2c 2A 2F# 2D\	2aa 2a\	(2D\	[2d\	(2A\	.	(2f#/	(2cc\	(2a/	-cis
2d 2B 2G\	2gg 2g\	2GG/)	2d\]	2G\)	.	2g/)	2b\)	2g/)	.
=80	=80	=80	=80	=80	=80	=80	=80	=80	=80
4f# 4d 4A 4F# 4D\	4aa 4a\	(4D/	(4f#\	(4A\	.	(4f#/	(4dd\	(4a/	vir-
4d 4B 4G\	4bb 4b\	4GG/)	4d\)	4B\)	.	4g/)	4b\)	4b/)	.
4c#X 4A 4G 4E 4AA\	4ee 4e/	(4AA/	(4A\	(4E\	.	(4g/	(4cc#X\	(4e/	-go
4A 4F# 4D\	4ddn 4dn/	4D/)	4A\)	4Dn/)	.	4f#/)	4dd\)	4dn/)	.
=81	=81	=81	=81	=81	=81	=81	=81	=81	=81
4d#X 4B 4F# 4BB\	4ff# 4f#/	(<4BB/	(4B\	(4F#\	.	(4b/	(4dd#X\	(4f#/	Ma-
4e 4B 4G 4E\	4gg 4g\	4E\	4B\	4G\	.	4g/	4ee\	4g/	.
4f# 4cn 4A 4F# 4AA\	4aa 4a\	4AA/	4f#\	4A\	.	4f#/	4ccn\	4a/	.
4d# 4B 4F# 4BB\	4ff# 4f#/	4BB/)	4d#X\)	4F#\)	.	4f#/)	4b\)	4f#/)	.
=82	=82	=82	=82	=82	=82	=82	=82	=82	=82
4e 4B 4G 4E\	4gg 4g\	(<4E\	(4B\	(4G\	.	(4e/	(<4b\	(4g/	-ri-
4B 4F# 4D#X 4BB\	4ff# 4f#/	4BB/	4B\	4F#\	.	4d#X/	4b\	4f#/	.
4G 4E 4C\	4ee 4e/	4C/	4e\	4E\	.	4e/	4g/	4e/	.
4B 4F# 4D# 4BB\	4dd#X 4d#X/	4BB/)	4B\)	4D#X\)	.	4f#/)	4b/)	4d#X)	.
=83	=83	=83	=83	=83	=83	=83	=83	=83	=83
1B 1G#X 1E	1ee 1e	1E	1B	1E	.	1e	1g#X	1e	-a.
!!LO:PB:g=original
=84||	=84||	=84||	=84||	=84||	=84||	=84||	=84||	=84||	=84||
4e 4B 4G 4E\	4gg 4g\	(<4E\	(4e\	(4G\	.	(4g/	(<4b\	(<4g/	.
4f# 4d 4A 4F# 4D\	4aa 4a\	4D\	4f#\	4A\	.	4f#/	4dd\	4a/	.
4d 4B 4G 4BB\	4bb 4b\	4BB/	4d\	4B\	.	4g/	4gn/	4b/	Al-
4d 4c 4A 4F# 4AA\	4ccc 4cc\	4AA/)	4d\)	4c\)	.	4f#/)	4a/)	4cc\)	.
=85	=85	=85	=85	=85	=85	=85	=85	=85	=85
4d 4B 4G\	4bb 4b\	(<4GG/	(4d\	(4B\	.	(4g/	(4b\	(4b/	-le-
4f# 4d 4A 4F# 4D\	4aa 4a\	4D\	4f#\	4A\	.	4f#/	4dd\	4a/	.
4e 4B 4G 4E\	4gg 4g\	4E\)	4B\)	4G\)	.	4e/)	4b\)	4g/)	.
4B 4F# 4D#X 4BB\	4ff# 4f#\	4BB/	4B\	4F#\	.	4d#X/	4b\	4f#/	-lu-
=86	=86	=86	=86	=86	=86	=86	=86	=86	=86
1B 1G#X 1E	1ee 1e	1E	1B	1E	.	1e	1g#X	1e	-ja.
=87||	=87||	=87||	=87||	=87||	=87||	=87||	=87||	=87||	=87||
!!!OMD: Temp. poſth. | Ave Maria
4d 4A 4F# 4D\	4aa 4a\	4D\	4d\	4A\	.	4f#/	4dd\	4a/	Be-
4d 4A 4F# 4D\	4aa 4a\	4D\	4d\	4A\	.	4f#/	4dd\	4a/	-ne-
4d 4B 4G\	4bb 4b\	4G\	4d\	4B\	.	4g/	4b\	4b/	-dic-
4f# 4d 4A 4F# 4D\	4aa 4a\	4D\	4f#\	4A\	.	4f#/	4dd\	4a/	-ta
=88	=88	=88	=88	=88	=88	=88	=88	=88	=88
2e 2B 2G 2E\	2gg 2g\	2E\	2e\	2G\	.	2g/	2b\	2g/	Tu
2e 2B 2G 2E\	2gg 2g\	2E\	2B\	2G\	.	2g/	2ee\	2g/	in
=89	=89	=89	=89	=89	=89	=89	=89	=89	=89
4c#X 4A\	4aa 4a\	4A\	4c#X\	4A\	.	4a/	4cc#X\	4a/	mu-
4d 4B 4G\	4gg 4g\	4G\	4B\	4G\	.	4b/	4dd\	4g/	-li-
4c# 4A 4E\	4ee 4e/	4A\	4c#\	4E\	.	4a/	4cc#\	4e/	-e-
4c# 4A 4G 4E 4AA\	4ee 4e/	4AA/	4A\	4E\	.	4g/	4cc#\	4e/	-ri-
=90	=90	=90	=90	=90	=90	=90	=90	=90	=90
1A 1F# 1D	1dd 1d	1D	1A	1D	.	1f#	1dd	1d	-bus.
!!LO:LB:g=original
=91	=91	=91	=91	=91	=91	=91	=91	=91	=91
4d#X 4B 4F# 4BB\	4ff# 4f#\	(<4BB/	(4B\	(4F#\	.	(4b/	(4dd#X\	(4f#/	Al-
4e 4B 4G 4E\	4gg 4g\	4E\	4B\	4G\	.	4g/	4ee\	4g/	.
4f# 4cn 4A 4AA\	4aa 4a\	4AA/)	4f#\)	4A\)	.	4f#/)	4ccn\)	4a/)	.
4d# 4B 4F# 4BB\	4ff# 4f#\	4BB/	4d#X\	4F#\	.	4f#/	4b\	4f#/	-le-
=92	=92	=92	=92	=92	=92	=92	=92	=92	=92
4e 4B 4G 4E\	4gg 4g\	(4E\	(4B\	(4G\	.	(4e/	(<4b\	(4g/	-lu-
4B 4F# 4D#X 4BB\	4ff# 4f#\	4BB/	4B\	4F#\	.	4d#X/	4b\	4f#/	.
4G 4E 4C\	4ee 4e/	4C/	4e\	4E\	.	4e/	4gn/	4e/	.
4B 4F# 4D# 4BB\	4dd#X 4d#X/	4BB/)	4B\)	4D#X\)	.	4f#/)	4b/)	4d#X/)	.
=93	=93	=93	=93	=93	=93	=93	=93	=93	=93
1B 1G#X 1E	1ee 1e	1E	1e	1E	.	1e	1g#X	1e	-ja.
!	!	!	!	!LO:TX:i:t=V.S.	!	!	!	!	!
!!LO:PB:g=original
=94	=94	=94	=94	=94	=94	=94	=94	=94	=94
*clefF4	*clefG2	*clefF4	*clefF4	*clefF4	*	*clefG2	*clefG2	*clefG2	*
*k[fn]	*k[fn]	*k[fn]	*k[fn]	*k[fn]	*	*k[fn]	*k[fn]	*k[fn]	*
!LO:TX:t=P:problem:znak Fn	!	!LO:TX:t=P:problem:znak Fn	!LO:TX:t=P:problem:znak Fn	!LO:TX:t=P:problem:znak Fn	!	!	!	!	!
4C 4G\	4c 4e 4cc/	4C 4c\	4c\	4c\	.	4g/	4ee\	4cc\	Suc-
8CL 8G\	8cL 8e 8cc/	8C 8c\	8c\	8c\	.	8g/	8ee\	8cc\	-cur-
8CJ 8G\	8cJ 8e 8cc/	8C 8c\	8c\	8c\	.	8g/	8ee\	8cc\	-re
4C 4G\	4c 4e 4cc/	4C 4c\	4c\	4c\	.	4g/	4ee\	4cc\	no-
4C 4G\	4c 4e 4cc/	4C 4c\	4c\	4c\	.	4g/	4ee\	4cc\	-bis,
=95	=95	=95	=95	=95	=95	=95	=95	=95	=95
4C 4G\	4c 4e 4cc/	4C 4c\	4c\	4c\	.	4g/	4ee\	4cc\	o
8CL 8G\	8cL 8e 8cc/	8C 8c\	8c\	8c\	.	8g/	8ee\	8cc\	be-
8CJ 8G\	8cJ 8e 8cc/	8C 8c\	8c\	8c\	.	8g/	8ee\	8cc\	-a-
8.CL 8.G\	8.cL 8.e 8.cc/	8.C 8.c\	8.c\	8.c\	.	8.g/	8.ee\	8.cc\	-tiſ-
16CJk 16G\	16cJk 16e 16cc/	16C 16c\	16c\	16c\	.	16g/	16ee\	16cc\	-si-
4C 4G\	4c 4e 4cc/	4C 4c\	4c\	4c\	.	4g/	4ee\	4cc\	-ma
=96	=96	=96	=96	=96	=96	=96	=96	=96	=96
2F 2A 2c\	2f 2a 2ff/	2F\	2c\	2f\	.	2a/	2ff\	2ff\	vir-
4.G 4.B\	4.d 4.f 4.g 4.dd/	4.G\	4.f\	4.d\	.	4.g/	4.b\	4.dd\	-go
8G 8B\	8d 8f 8g 8dd/	8G\	8f\	8d\	.	8g/	8b\	8dd\	Ma-
=97	=97	=97	=97	=97	=97	=97	=97	=97	=97
2GG 2G 2B\	2d 2f 2dd/	2GG/	2f\	2d\	.	2g/	2b\	2dd\	-ri-
2C 2G\	2c 2e 2cc/	2C/	2e\	2c\	.	2g/	2cc\	2cc\	-a.
=98	=98	=98	=98	=98	=98	=98	=98	=98	=98
2c\	2e 2g 2cc/	(<2c\	(2c\	(2c\	.	(2g/	(2ee\	(2cc\	A-
2F 2c\	2f 2a 2ff/	2F\	2c\	2f\	.	2a/	2ff\	2ff\	.
=99	=99	=99	=99	=99	=99	=99	=99	=99	=99
*^	*	*	*	*	*	*	*	*	*
1B	2G\	1d 1f 1g 1dd	2G\	1f)	1d)	.	1g)	1b)	1dd)	.
.	2GG/	.	2GG)/	.	.	.	.	.	.	.
*v	*v	*	*	*	*	*	*	*	*	*
=100	=100	=100	=100	=100	=100	=100	=100	=100	=100
2C 2c\	2e 2g 2cc/	2C/	2e\	2c\	.	2g/	2cc\	2cc\	-men.
2r	2r	2r	2r	2r	.	2r	2r	2r	.
==	==	==	==	==	==	==	==	==	==
*-	*-	*-	*-	*-	*-	*-	*-	*-	*-
!!!system-decoration: g1{(g2)}
!!!RDF**kern: < = below
!!!ENC: Berenika Jozajtis
!!!END: 2022-12-20
!!!ENC: Marta Lawrence
!!!END: 2023-07-20
!!!YEC: Copyright 2022 Narodowy Instytut Fryderyka Chopina (https://polishscores.org)
!!!YEM: License CC-BY-4.0 (https://creativecommons.org/licenses/by/4.0)
